images/s3.svg

<svg width="20" height="20" viewBox="0 0 20 20" fill="none" xmlns="http://www.w3.org/2000/svg">
<path d="M10.0022 4.87225C7.16453 4.87225 4.87563 7.16166 4.87563 10C4.87563 12.8383 7.16453 15.1277 10.0022 15.1277C12.8399 15.1277 15.1288 12.8383 15.1288 10C15.1288 7.16166 12.8399 4.87225 10.0022 4.87225ZM10.0022 13.3337C8.16843 13.3337 6.66927 11.8387 6.66927 10C6.66927 8.16133 8.16397 6.66629 10.0022 6.66629C11.8405 6.66629 13.3352 8.16133 13.3352 10C13.3352 11.8387 11.836 13.3337 10.0022 13.3337ZM16.5343 4.6625C16.5343 5.32746 15.9989 5.85853 15.3385 5.85853C14.6737 5.85853 14.1428 5.32299 14.1428 4.6625C14.1428 4.00201 14.6782 3.46647 15.3385 3.46647C15.9989 3.46647 16.5343 4.00201 16.5343 4.6625ZM19.9297 5.87638C19.8539 4.27424 19.488 2.85507 18.3146 1.68582C17.1456 0.516568 15.7267 0.150619 14.1249 0.070289C12.4741 -0.0234297 7.52593 -0.0234297 5.87507 0.070289C4.27775 0.146156 2.8589 0.512105 1.68544 1.68136C0.511991 2.85061 0.150586 4.26978 0.0702733 5.87192C-0.0234244 7.52315 -0.0234244 12.4724 0.0702733 14.1236C0.146124 15.7258 0.511991 17.1449 1.68544 18.3142C2.8589 19.4834 4.27329 19.8494 5.87507 19.9297C7.52593 20.0234 12.4741 20.0234 14.1249 19.9297C15.7267 19.8538 17.1456 19.4879 18.3146 18.3142C19.4835 17.1449 19.8494 15.7258 19.9297 14.1236C20.0234 12.4724 20.0234 7.52761 19.9297 5.87638ZM17.797 15.8953C17.449 16.7701 16.7752 17.4439 15.8963 17.7965C14.58 18.3186 11.4568 18.1981 10.0022 18.1981C8.54769 18.1981 5.41997 18.3142 4.1082 17.7965C3.23369 17.4484 2.55996 16.7745 2.20747 15.8953C1.68544 14.5788 1.80591 11.4549 1.80591 10C1.80591 8.54513 1.68991 5.41671 2.20747 4.10465C2.55549 3.22995 3.22922 2.55606 4.1082 2.2035C5.42443 1.68136 8.54769 1.80185 10.0022 1.80185C11.4568 1.80185 14.5845 1.68582 15.8963 2.2035C16.7708 2.5516 17.4445 3.22548 17.797 4.10465C18.319 5.42118 18.1985 8.54513 18.1985 10C18.1985 11.4549 18.319 14.5833 17.797 15.8953Z" fill="white"/>
</svg>

<svg width="20" height="20" fill="none" xmlns="http://www.w3.org/2000/svg"><path d="M10.002 4.872A5.119 5.119 0 0 0 4.876 10a5.119 5.119 0 0 0 5.126 5.128A5.119 5.119 0 0 0 15.13 10a5.12 5.12 0 0 0-5.127-5.128Zm0 8.462A3.34 3.34 0 0 1 6.67 10a3.337 3.337 0 0 1 3.333-3.334A3.337 3.337 0 0 1 13.335 10a3.34 3.34 0 0 1-3.333 3.334Zm6.532-8.671c0 .664-.535 1.196-1.195 1.196a1.196 1.196 0 1 1 1.196-1.196Zm3.396 1.213c-.076-1.602-.442-3.02-1.615-4.19C17.145.516 15.727.15 14.125.07c-1.65-.093-6.6-.093-8.25 0-1.597.076-3.016.442-4.19 1.611C.512 2.851.151 4.27.07 5.871c-.093 1.652-.093 6.601 0 8.253.076 1.602.442 3.02 1.615 4.19 1.174 1.17 2.588 1.535 4.19 1.616 1.65.093 6.6.093 8.25 0 1.602-.076 3.02-.442 4.19-1.616 1.168-1.17 1.534-2.588 1.615-4.19.093-1.652.093-6.596 0-8.248Zm-2.133 10.02a3.375 3.375 0 0 1-1.9 1.9c-1.317.523-4.44.402-5.895.402-1.454 0-4.582.116-5.894-.401a3.375 3.375 0 0 1-1.9-1.902c-.523-1.316-.402-4.44-.402-5.895 0-1.455-.116-4.583.401-5.895a3.375 3.375 0 0 1 1.901-1.902c1.316-.522 4.44-.401 5.894-.401 1.455 0 4.582-.116 5.894.401a3.375 3.375 0 0 1 1.901 1.902c.522 1.316.401 4.44.401 5.895 0 1.455.121 4.583-.401 5.895Z" fill="#fff"/></svg>
